app/assets/images/icons/weather/nightpartlycloudy.svg

<?xml version="1.0" encoding="UTF-8" standalone="no"?>
<svg width="32px" height="232px" viewBox="0 0 32 232" version="1.1" xmlns="http://www.w3.org/2000/svg" xmlns:xlink="http://www.w3.org/1999/xlink" xmlns:sketch="http://www.bohemiancoding.com/sketch/ns">
    <!-- Generator: Sketch 3.0.3 (7891) - http://www.bohemiancoding.com/sketch -->
    <title>night-partly-cloudy</title>
    <desc>Created with Sketch.</desc>
    <defs></defs>
    <g id="Weather" stroke="none" stroke-width="1" fill="none" fill-rule="evenodd" sketch:type="MSPage">
        <path d="M27.165,18.248605 C27.624,17.724605 28.02,17.144605 28.317,16.515605 C28.403,16.333605 28.365,16.116605 28.222,15.974605 C28.08,15.832605 27.864,15.794605 27.681,15.880605 C26.806,16.293605 25.868,16.502605 24.896,16.502605 C21.291,16.502605 18.359,13.570605 18.359,9.96660496 C18.359,8.99460496 18.569,8.05660496 18.982,7.18060496 C19.068,6.99860496 19.031,6.78260496 18.888,6.63960496 C18.746,6.49760496 18.529,6.45960496 18.347,6.54560496 C15.736,7.77660496 14.048,10.437605 14.048,13.322605 C14.048,13.577605 14.065,13.831605 14.091,14.083605 C12.602,12.961605 10.76,12.300605 8.807,12.300605 C3.951,12.300605 0,16.251605 0,21.107605 C0,22.471605 0.312,23.789605 0.929,25.024605 C1.009,25.186605 1.175,25.289605 1.356,25.289605 L31.253,25.289605 C31.457,25.289605 31.638,25.159605 31.704,24.967605 C31.903,24.388605 32,23.848605 32,23.316605 C32,20.598605 29.852,18.378605 27.165,18.248605 L27.165,18.248605 Z M17.645,8.07460496 C17.485,8.68760496 17.405,9.32060496 17.405,9.96660496 C17.405,14.097605 20.765,17.457605 24.896,17.457605 C25.542,17.457605 26.175,17.377605 26.788,17.216605 C26.458,17.660605 26.069,18.058605 25.638,18.406605 C24.619,18.672605 23.698,19.245605 23.014,20.066605 C21.396,18.856605 19.363,18.340605 17.287,18.744605 C16.906,17.373605 16.196,16.149605 15.262,15.142605 C15.092,14.554605 15.003,13.942605 15.003,13.322605 C15.003,11.241605 16.009,9.29460496 17.645,8.07460496 L17.645,8.07460496 Z M30.901,24.334605 L1.657,24.334605 C1.191,23.309605 0.955,22.226605 0.955,21.107605 C0.955,16.777605 4.477,13.255605 8.807,13.255605 C12.464,13.255605 15.688,15.846605 16.471,19.416605 C16.499,19.542605 16.577,19.652605 16.688,19.720605 C16.798,19.788605 16.931,19.807605 17.058,19.775605 C17.596,19.635605 18.132,19.564605 18.651,19.564605 C20.164,19.564605 21.633,20.112605 22.787,21.108605 C22.89,21.197605 23.027,21.237605 23.162,21.219605 C23.297,21.201605 23.418,21.127605 23.494,21.014605 C24.266,19.872605 25.546,19.190605 26.919,19.190605 C29.194,19.190605 31.046,21.041605 31.046,23.316605 C31.046,23.643605 30.998,23.979605 30.901,24.334605 L30.901,24.334605 Z" id="night-partly-cloudy" fill="#3B444F" sketch:type="MSShapeGroup"></path>
        <path d="M27.165,58.248605 C27.624,57.724605 28.02,57.144605 28.317,56.515605 C28.403,56.333605 28.365,56.116605 28.222,55.974605 C28.08,55.832605 27.864,55.794605 27.681,55.880605 C26.806,56.293605 25.868,56.502605 24.896,56.502605 C21.291,56.502605 18.359,53.570605 18.359,49.966605 C18.359,48.994605 18.569,48.056605 18.982,47.180605 C19.068,46.998605 19.031,46.782605 18.888,46.639605 C18.746,46.497605 18.529,46.459605 18.347,46.545605 C15.736,47.776605 14.048,50.437605 14.048,53.322605 C14.048,53.577605 14.065,53.831605 14.091,54.083605 C12.602,52.961605 10.76,52.300605 8.807,52.300605 C3.951,52.300605 0,56.251605 0,61.107605 C0,62.471605 0.312,63.789605 0.929,65.024605 C1.009,65.186605 1.175,65.289605 1.356,65.289605 L31.253,65.289605 C31.457,65.289605 31.638,65.159605 31.704,64.967605 C31.903,64.388605 32,63.848605 32,63.316605 C32,60.598605 29.852,58.378605 27.165,58.248605 L27.165,58.248605 Z M17.645,48.074605 C17.485,48.687605 17.405,49.320605 17.405,49.966605 C17.405,54.097605 20.765,57.457605 24.896,57.457605 C25.542,57.457605 26.175,57.377605 26.788,57.216605 C26.458,57.660605 26.069,58.058605 25.638,58.406605 C24.619,58.672605 23.698,59.245605 23.014,60.066605 C21.396,58.856605 19.363,58.340605 17.287,58.744605 C16.906,57.373605 16.196,56.149605 15.262,55.142605 C15.092,54.554605 15.003,53.942605 15.003,53.322605 C15.003,51.241605 16.009,49.294605 17.645,48.074605 L17.645,48.074605 Z M30.901,64.334605 L1.657,64.334605 C1.191,63.309605 0.955,62.226605 0.955,61.107605 C0.955,56.777605 4.477,53.255605 8.807,53.255605 C12.464,53.255605 15.688,55.846605 16.471,59.416605 C16.499,59.542605 16.577,59.652605 16.688,59.720605 C16.798,59.788605 16.931,59.807605 17.058,59.775605 C17.596,59.635605 18.132,59.564605 18.651,59.564605 C20.164,59.564605 21.633,60.112605 22.787,61.108605 C22.89,61.197605 23.027,61.237605 23.162,61.219605 C23.297,61.201605 23.418,61.127605 23.494,61.014605 C24.266,59.872605 25.546,59.190605 26.919,59.190605 C29.194,59.190605 31.046,61.041605 31.046,63.316605 C31.046,63.643605 30.998,63.979605 30.901,64.334605 L30.901,64.334605 Z" id="night-partly-cloudy-2" fill="#67737B" sketch:type="MSShapeGroup"></path>
        <path d="M27.165,98.248605 C27.624,97.724605 28.02,97.144605 28.317,96.515605 C28.403,96.333605 28.365,96.116605 28.222,95.974605 C28.08,95.832605 27.864,95.794605 27.681,95.880605 C26.806,96.293605 25.868,96.502605 24.896,96.502605 C21.291,96.502605 18.359,93.570605 18.359,89.966605 C18.359,88.994605 18.569,88.056605 18.982,87.180605 C19.068,86.998605 19.031,86.782605 18.888,86.639605 C18.746,86.497605 18.529,86.459605 18.347,86.545605 C15.736,87.776605 14.048,90.437605 14.048,93.322605 C14.048,93.577605 14.065,93.831605 14.091,94.083605 C12.602,92.961605 10.76,92.300605 8.807,92.300605 C3.951,92.300605 0,96.251605 0,101.107605 C0,102.471605 0.312,103.789605 0.929,105.024605 C1.009,105.186605 1.175,105.289605 1.356,105.289605 L31.253,105.289605 C31.457,105.289605 31.638,105.159605 31.704,104.967605 C31.903,104.388605 32,103.848605 32,103.316605 C32,100.598605 29.852,98.378605 27.165,98.248605 L27.165,98.248605 Z M17.645,88.074605 C17.485,88.687605 17.405,89.320605 17.405,89.966605 C17.405,94.097605 20.765,97.457605 24.896,97.457605 C25.542,97.457605 26.175,97.377605 26.788,97.216605 C26.458,97.660605 26.069,98.058605 25.638,98.406605 C24.619,98.672605 23.698,99.245605 23.014,100.066605 C21.396,98.856605 19.363,98.340605 17.287,98.744605 C16.906,97.373605 16.196,96.149605 15.262,95.142605 C15.092,94.554605 15.003,93.942605 15.003,93.322605 C15.003,91.241605 16.009,89.294605 17.645,88.074605 L17.645,88.074605 Z M30.901,104.334605 L1.657,104.334605 C1.191,103.309605 0.955,102.226605 0.955,101.107605 C0.955,96.777605 4.477,93.255605 8.807,93.255605 C12.464,93.255605 15.688,95.846605 16.471,99.416605 C16.499,99.542605 16.577,99.652605 16.688,99.720605 C16.798,99.788605 16.931,99.807605 17.058,99.775605 C17.596,99.635605 18.132,99.564605 18.651,99.564605 C20.164,99.564605 21.633,100.112605 22.787,101.108605 C22.89,101.197605 23.027,101.237605 23.162,101.219605 C23.297,101.201605 23.418,101.127605 23.494,101.014605 C24.266,99.872605 25.546,99.190605 26.919,99.190605 C29.194,99.190605 31.046,101.041605 31.046,103.316605 C31.046,103.643605 30.998,103.979605 30.901,104.334605 L30.901,104.334605 Z" id="night-partly-cloudy-3" fill="#FFFFFF" sketch:type="MSShapeGroup"></path>
        <path d="M27.165,138.248605 C27.624,137.724605 28.02,137.144605 28.317,136.515605 C28.403,136.333605 28.365,136.116605 28.222,135.974605 C28.08,135.832605 27.864,135.794605 27.681,135.880605 C26.806,136.293605 25.868,136.502605 24.896,136.502605 C21.291,136.502605 18.359,133.570605 18.359,129.966605 C18.359,128.994605 18.569,128.056605 18.982,127.180605 C19.068,126.998605 19.031,126.782605 18.888,126.639605 C18.746,126.497605 18.529,126.459605 18.347,126.545605 C15.736,127.776605 14.048,130.437605 14.048,133.322605 C14.048,133.577605 14.065,133.831605 14.091,134.083605 C12.602,132.961605 10.76,132.300605 8.807,132.300605 C3.951,132.300605 0,136.251605 0,141.107605 C0,142.471605 0.312,143.789605 0.929,145.024605 C1.009,145.186605 1.175,145.289605 1.356,145.289605 L31.253,145.289605 C31.457,145.289605 31.638,145.159605 31.704,144.967605 C31.903,144.388605 32,143.848605 32,143.316605 C32,140.598605 29.852,138.378605 27.165,138.248605 L27.165,138.248605 Z M17.645,128.074605 C17.485,128.687605 17.405,129.320605 17.405,129.966605 C17.405,134.097605 20.765,137.457605 24.896,137.457605 C25.542,137.457605 26.175,137.377605 26.788,137.216605 C26.458,137.660605 26.069,138.058605 25.638,138.406605 C24.619,138.672605 23.698,139.245605 23.014,140.066605 C21.396,138.856605 19.363,138.340605 17.287,138.744605 C16.906,137.373605 16.196,136.149605 15.262,135.142605 C15.092,134.554605 15.003,133.942605 15.003,133.322605 C15.003,131.241605 16.009,129.294605 17.645,128.074605 L17.645,128.074605 Z M30.901,144.334605 L1.657,144.334605 C1.191,143.309605 0.955,142.226605 0.955,141.107605 C0.955,136.777605 4.477,133.255605 8.807,133.255605 C12.464,133.255605 15.688,135.846605 16.471,139.416605 C16.499,139.542605 16.577,139.652605 16.688,139.720605 C16.798,139.788605 16.931,139.807605 17.058,139.775605 C17.596,139.635605 18.132,139.564605 18.651,139.564605 C20.164,139.564605 21.633,140.112605 22.787,141.108605 C22.89,141.197605 23.027,141.237605 23.162,141.219605 C23.297,141.201605 23.418,141.127605 23.494,141.014605 C24.266,139.872605 25.546,139.190605 26.919,139.190605 C29.194,139.190605 31.046,141.041605 31.046,143.316605 C31.046,143.643605 30.998,143.979605 30.901,144.334605 L30.901,144.334605 Z" id="night-partly-cloudy-4" fill="#206FAC" sketch:type="MSShapeGroup"></path>
    </g>
</svg>

<svg width="32" height="232" viewBox="0 0 32 232" xmlns="http://www.w3.org/2000/svg"><g fill="none" fill-rule="evenodd"><path d="M27.165 18.25c.46-.525.855-1.105 1.152-1.734.086-.182.048-.4-.095-.54-.142-.143-.358-.18-.54-.095-.876.414-1.814.623-2.786.623-3.605 0-6.537-2.932-6.537-6.536 0-.972.21-1.91.622-2.786.086-.18.05-.397-.094-.54-.142-.142-.36-.18-.54-.094-2.612 1.23-4.3 3.892-4.3 6.777 0 .255.017.51.043.76-1.488-1.12-3.33-1.782-5.283-1.782C3.95 12.3 0 16.253 0 21.11c0 1.364.312 2.682.93 3.917.08.162.245.265.426.265h29.897c.204 0 .385-.13.45-.322.2-.58.297-1.12.297-1.65 0-2.72-2.148-4.94-4.835-5.07zm-9.52-10.175c-.16.613-.24 1.246-.24 1.892 0 4.13 3.36 7.49 7.49 7.49.647 0 1.28-.08 1.893-.24-.33.444-.72.842-1.15 1.19-1.02.266-1.94.84-2.624 1.66-1.618-1.21-3.65-1.726-5.727-1.322-.38-1.37-1.09-2.595-2.025-3.602-.17-.588-.26-1.2-.26-1.82 0-2.08 1.007-4.028 2.643-5.248zM30.9 24.335H1.658C1.19 23.31.955 22.227.955 21.108c0-4.33 3.522-7.852 7.852-7.852 3.657 0 6.88 2.59 7.664 6.16.03.127.107.237.218.305.11.07.243.088.37.056.538-.14 1.074-.21 1.593-.21 1.514 0 2.983.547 4.137 1.543.103.088.24.128.375.11.135-.018.256-.092.332-.205.772-1.142 2.052-1.824 3.425-1.824 2.274 0 4.126 1.852 4.126 4.127 0 .327-.048.663-.145 1.018z" fill="#3B444F"/><path d="M27.165 58.25c.46-.525.855-1.105 1.152-1.734.086-.182.048-.4-.095-.54-.142-.143-.358-.18-.54-.095-.876.414-1.814.623-2.786.623-3.605 0-6.537-2.932-6.537-6.536 0-.972.21-1.91.622-2.786.086-.18.05-.397-.094-.54-.142-.142-.36-.18-.54-.094-2.612 1.23-4.3 3.892-4.3 6.777 0 .255.017.51.043.76-1.488-1.12-3.33-1.782-5.283-1.782C3.95 52.3 0 56.253 0 61.11c0 1.364.312 2.682.93 3.917.08.162.245.265.426.265h29.897c.204 0 .385-.13.45-.322.2-.58.297-1.12.297-1.65 0-2.72-2.148-4.94-4.835-5.07zm-9.52-10.175c-.16.613-.24 1.246-.24 1.892 0 4.13 3.36 7.49 7.49 7.49.647 0 1.28-.08 1.893-.24-.33.444-.72.842-1.15 1.19-1.02.266-1.94.84-2.624 1.66-1.618-1.21-3.65-1.726-5.727-1.322-.38-1.37-1.09-2.595-2.025-3.602-.17-.588-.26-1.2-.26-1.82 0-2.08 1.007-4.028 2.643-5.248zM30.9 64.335H1.658C1.19 63.31.955 62.227.955 61.108c0-4.33 3.522-7.852 7.852-7.852 3.657 0 6.88 2.59 7.664 6.16.03.127.107.237.218.305.11.07.243.088.37.056.538-.14 1.074-.21 1.593-.21 1.514 0 2.983.547 4.137 1.543.103.088.24.128.375.11.135-.018.256-.092.332-.205.772-1.142 2.052-1.824 3.425-1.824 2.274 0 4.126 1.852 4.126 4.127 0 .327-.048.663-.145 1.018z" fill="#67737B"/><path d="M27.165 98.25c.46-.525.855-1.105 1.152-1.734.086-.182.048-.4-.095-.54-.142-.143-.358-.18-.54-.095-.876.414-1.814.623-2.786.623-3.605 0-6.537-2.932-6.537-6.536 0-.972.21-1.91.622-2.786.086-.18.05-.397-.094-.54-.142-.142-.36-.18-.54-.094-2.612 1.23-4.3 3.892-4.3 6.777 0 .255.017.51.043.76-1.488-1.12-3.33-1.782-5.283-1.782C3.95 92.3 0 96.253 0 101.11c0 1.364.312 2.682.93 3.917.08.162.245.265.426.265h29.897c.204 0 .385-.13.45-.322.2-.58.297-1.12.297-1.65 0-2.72-2.148-4.94-4.835-5.07zm-9.52-10.175c-.16.613-.24 1.246-.24 1.892 0 4.13 3.36 7.49 7.49 7.49.647 0 1.28-.08 1.893-.24-.33.444-.72.842-1.15 1.19-1.02.266-1.94.84-2.624 1.66-1.618-1.21-3.65-1.726-5.727-1.322-.38-1.37-1.09-2.595-2.025-3.602-.17-.588-.26-1.2-.26-1.82 0-2.08 1.007-4.028 2.643-5.248zm13.256 16.26H1.658c-.466-1.025-.702-2.108-.702-3.227 0-4.33 3.522-7.852 7.852-7.852 3.657 0 6.88 2.59 7.664 6.16.03.127.107.237.218.305.11.07.243.088.37.056.538-.14 1.074-.21 1.593-.21 1.514 0 2.983.547 4.137 1.543.103.088.24.128.375.11.135-.018.256-.092.332-.205.772-1.142 2.052-1.824 3.425-1.824 2.274 0 4.126 1.852 4.126 4.127 0 .327-.048.663-.145 1.018z" fill="#fff"/><path d="M27.165 138.25c.46-.525.855-1.105 1.152-1.734.086-.182.048-.4-.095-.54-.142-.143-.358-.18-.54-.095-.876.414-1.814.623-2.786.623-3.605 0-6.537-2.932-6.537-6.536 0-.972.21-1.91.622-2.786.086-.18.05-.397-.094-.54-.142-.142-.36-.18-.54-.094-2.612 1.23-4.3 3.892-4.3 6.777 0 .255.017.51.043.76-1.488-1.12-3.33-1.782-5.283-1.782C3.95 132.3 0 136.253 0 141.11c0 1.364.312 2.682.93 3.917.08.162.245.265.426.265h29.897c.204 0 .385-.13.45-.322.2-.58.297-1.12.297-1.65 0-2.72-2.148-4.94-4.835-5.07zm-9.52-10.175c-.16.613-.24 1.246-.24 1.892 0 4.13 3.36 7.49 7.49 7.49.647 0 1.28-.08 1.893-.24-.33.444-.72.842-1.15 1.19-1.02.266-1.94.84-2.624 1.66-1.618-1.21-3.65-1.726-5.727-1.322-.38-1.37-1.09-2.595-2.025-3.602-.17-.588-.26-1.2-.26-1.82 0-2.08 1.007-4.028 2.643-5.248zm13.256 16.26H1.658c-.466-1.025-.702-2.108-.702-3.227 0-4.33 3.522-7.852 7.852-7.852 3.657 0 6.88 2.59 7.664 6.16.03.127.107.237.218.305.11.07.243.088.37.056.538-.14 1.074-.21 1.593-.21 1.514 0 2.983.547 4.137 1.543.103.088.24.128.375.11.135-.018.256-.092.332-.205.772-1.142 2.052-1.824 3.425-1.824 2.274 0 4.126 1.852 4.126 4.127 0 .327-.048.663-.145 1.018z" fill="#206FAC"/></g></svg>
